X: 259
T: Paddy's whiskers
C: anon.
O: Ireland
B: Francis O'Neill: "The Dance Music of Ireland" (1907) no. 259
R: Double jig
Z: Transcribed by Frank Nordberg - http://www.musicaviva.com
F: http://www.musicaviva.com/abc/tunes/ireland/oneill-1001/oneill-1001-025
9.abc
M: 6/8
L: 1/8
K: D
A/G/|FGA Bcd|cBA d2e|fdB AGF|GFG EAG|FGA Bcd|cBA d2e|fdB AFA|Bdd d2:|
|:f/g/|aAA ABA|agf ecA|dDD DED|AGF E2A/G/|FGA Bcd|cBA g2g|fdB AFA|Bdd d2:
|
W:
W:
W: From Musica Viva - http://www.musicaviva.com
W: the Internet center for free sheet music downloads.


